src/shared/assets/icons/payments.svg

<svg width="22" height="16" viewBox="0 0 22 16" fill="none" xmlns="http://www.w3.org/2000/svg">
<path fill-rule="evenodd" clip-rule="evenodd" d="M18 0H4C1.79086 0 0 1.79086 0 4V5V12C0 14.2091 1.79086 16 4 16H18C20.2091 16 22 14.2091 22 12V5V4C22 1.79086 20.2091 0 18 0ZM20 4C20 2.89543 19.1046 2 18 2H4C2.89543 2 2 2.89543 2 4H20ZM2 6H20V12C20 13.1046 19.1046 14 18 14H4C2.89543 14 2 13.1046 2 12V6ZM18 11C18 10.4477 17.5523 10 17 10H14L13.8834 10.0067C13.386 10.0645 13 10.4872 13 11C13 11.5523 13.4477 12 14 12H17L17.1166 11.9933C17.614 11.9355 18 11.5128 18 11ZM11 10C11.5523 10 12 10.4477 12 11C12 11.5128 11.614 11.9355 11.1166 11.9933L11 12H10C9.44771 12 9 11.5523 9 11C9 10.4872 9.38604 10.0645 9.88338 10.0067L10 10H11Z" fill="current"/>
</svg>

<svg xmlns="http://www.w3.org/2000/svg" width="22" height="16" fill="none"><path fill="current" fill-rule="evenodd" d="M18 0H4a4 4 0 0 0-4 4v8a4 4 0 0 0 4 4h14a4 4 0 0 0 4-4V4a4 4 0 0 0-4-4Zm2 4a2 2 0 0 0-2-2H4a2 2 0 0 0-2 2h18ZM2 6h18v6a2 2 0 0 1-2 2H4a2 2 0 0 1-2-2V6Zm16 5a1 1 0 0 0-1-1h-3l-.117.007A1 1 0 0 0 14 12h3l.117-.007A1 1 0 0 0 18 11Zm-7-1a1 1 0 0 1 .117 1.993L11 12h-1a1 1 0 0 1-.117-1.993L10 10h1Z" clip-rule="evenodd"/></svg>
